svgs/duotone/seat-airline.svg

<svg xmlns="http://www.w3.org/2000/svg" viewBox="0 0 448 512"><!--! Font Awesome Pro 6.6.0 by @fontawesome - https://fontawesome.com License - https://fontawesome.com/license (Commercial License) Copyright 2024 Fonticons, Inc. --><path class="fa-secondary" style="fill:var(--fa-secondary-color,inherit);opacity:var(--fa-secondary-opacity,.4);" d="M80.5 192c9.1 21.3 18.3 42.7 27.4 64l212 0c17.7 0 32-14.3 32-32s-14.3-32-32-32L80.5 192zM96 488c0 13.3 10.7 24 24 24l240 0c13.3 0 24-10.7 24-24s-10.7-24-24-24l-96 0 0-48-48 0 0 48-96 0c-13.3 0-24 10.7-24 24z"/><path class="fa-primary" style="fill:var(--fa-primary-color,inherit);opacity:var(--fa-primary-opacity,1);" d="M32 0C49.7 0 64 14.3 64 32l0 111.6c0 6.5 1.3 12.9 3.9 18.9L121.7 288 416 288c12.1 0 23.2 6.8 28.6 17.7s4.3 23.8-3 33.5l-43.2 57.6C389.3 408.9 375.1 416 360 416l-189.8 0c-38.4 0-73.1-22.9-88.2-58.2L9.1 187.7c-6-13.9-9.1-29-9.1-44.1L0 32C0 14.3 14.3 0 32 0z"/></svg>

<svg xmlns="http://www.w3.org/2000/svg" viewBox="0 0 448 512"><!--! Font Awesome Pro 6.4.2 by @fontawesome - https://fontawesome.com License - https://fontawesome.com/license (Commercial License) Copyright 2023 Fonticons, Inc. --><path class="fa-primary" style="fill:var(--fa-primary-color,inherit);opacity:var(--fa-primary-opacity,1);" d="M32 0C49.7 0 64 14.3 64 32V143.6c0 6.5 1.3 12.9 3.9 18.9L121.7 288H416c12.1 0 23.2 6.8 28.6 17.7s4.3 23.8-3 33.5l-43.2 57.6C389.3 408.9 375.1 416 360 416H170.2c-38.4 0-73.1-22.9-88.2-58.2L9.1 187.7c-6-13.9-9.1-29-9.1-44.1V32C0 14.3 14.3 0 32 0z"/><path class="fa-secondary" style="fill:var(--fa-secondary-color,inherit);opacity:var(--fa-secondary-opacity,.4);" d="M216 416v48H120c-13.3 0-24 10.7-24 24s10.7 24 24 24H360c13.3 0 24-10.7 24-24s-10.7-24-24-24H264V416H216zM108 256H320c17.7 0 32-14.3 32-32s-14.3-32-32-32H80.5L108 256z"/></svg>
